resources/haticons/SVG/pencil2.svg

<!-- Generated by IcoMoon.io -->
<svg version="1.1" xmlns="http://www.w3.org/2000/svg" width="24" height="24" viewBox="0 0 24 24">
<title>pencil2</title>
<path d="M9 15l3-1.5 10.5-10.5-1.5-1.5-10.5 10.5-1.5 3zM6.78 20.323c-0.741-1.564-1.539-2.362-3.103-3.103l2.323-6.394 3-1.826 9-9h-4.5l-9 9-4.5 15 15-4.5 9-9v-4.5l-9 9-1.826 3z"></path>
</svg>

<svg xmlns="http://www.w3.org/2000/svg" width="24" height="24"><path d="M9 15l3-1.5L22.5 3 21 1.5 10.5 12 9 15zm-2.22 5.323c-.741-1.564-1.539-2.362-3.103-3.103L6 10.826 9 9l9-9h-4.5l-9 9L0 24l15-4.5 9-9V6l-9 9-1.826 3z"/></svg>
